storage/app/icons/phosphoricons/regular/backpack.svg

<svg xmlns="http://www.w3.org/2000/svg" fill="currentColor" viewBox="0 0 256 256"><path d="M168 40.58V32a24 24 0 0 0-24-24h-32a24 24 0 0 0-24 24v8.58A56.09 56.09 0 0 0 40 96v120a16 16 0 0 0 16 16h144a16 16 0 0 0 16-16V96a56.09 56.09 0 0 0-48-55.42M112 24h32a8 8 0 0 1 8 8v8h-48v-8a8 8 0 0 1 8-8m56 136H88v-8a8 8 0 0 1 8-8h64a8 8 0 0 1 8 8Zm-80 16h48v8a8 8 0 0 0 16 0v-8h16v40H88Zm112 40h-16v-64a24 24 0 0 0-24-24H96a24 24 0 0 0-24 24v64H56V96a40 40 0 0 1 40-40h64a40 40 0 0 1 40 40zM152 88a8 8 0 0 1-8 8h-32a8 8 0 0 1 0-16h32a8 8 0 0 1 8 8"/></svg>

<svg xmlns="http://www.w3.org/2000/svg" viewBox="0 0 256 256" fill="currentColor"><path d="M168,40.58V32A24,24,0,0,0,144,8H112A24,24,0,0,0,88,32v8.58A56.09,56.09,0,0,0,40,96V216a16,16,0,0,0,16,16H200a16,16,0,0,0,16-16V96A56.09,56.09,0,0,0,168,40.58ZM112,24h32a8,8,0,0,1,8,8v8H104V32A8,8,0,0,1,112,24Zm56,136H88v-8a8,8,0,0,1,8-8h64a8,8,0,0,1,8,8ZM88,176h48v8a8,8,0,0,0,16,0v-8h16v40H88Zm112,40H184V152a24,24,0,0,0-24-24H96a24,24,0,0,0-24,24v64H56V96A40,40,0,0,1,96,56h64a40,40,0,0,1,40,40V216ZM152,88a8,8,0,0,1-8,8H112a8,8,0,0,1,0-16h32A8,8,0,0,1,152,88Z"/></svg>
